X: 238
T: Valenciennes
%R: jig
Z: 2014 John Chambers <jc:trillian.mit.edu>
B: Preston "Twenty four Country Dances for the Year 1794" p.99 #2
F: http://www.vwml.org/browse/browse-collections-dance-tune-books/browse-prestons1794# 2014-8-10
M: 6/8
L: 1/8
K: G
|:\
g3 d3 | B3 G2D | E2E F2F | GBc def |\
g3 d3 | B3 G2D | EGE FAF | G3 G,3 :|
|:\
d3 bgd | c3 afc | B3 gdB | AFD AFD |\
d3 bgd | c3 afc | BdB cAF | G3 G,3 :|
% - - - - - - - - - - - - - - - - - - - - - - - - -
%%begintext align
%% The 1st Lady set to the 2d Gent.n & turn the 3d
%% Gent.n .| The 1st Gent.n set to the 2d Lady and
%% turn the 3d Lady :| Lead down the middle up
%% again :|. Le Poussette with the top Cu: :|:
%%endtext
% - - - - - - - - - - - - - - - - - - - - - - - - -

%%sep 1 1 500
%%sep 1 1 500
